X: 2613
T: Baltimore Fox, The
R: reel
M: 4/4
K: Aminor
A2aA gedc|d^deA (3AAA GB|A2aA gega|b_bag edcB|
A2aA gedc|d^deA (3AAA GB|(3AAA cA ^cAdA|e/f/e dc AGEG:|
|:AaaA ggAf|fA (3eee edcB|AaaA gega|b_bag edcB|
AaaA ggAf|fA (3eee edcB|cA^cA dAeA|e/f/e dc AGEG:|

